packages/kaspersky-hexa-ui-icons/src/iconsSVGs/16/File.svg

<svg width="16" height="16" viewBox="0 0 16 16" fill="none" xmlns="http://www.w3.org/2000/svg">
<path fill-rule="evenodd" clip-rule="evenodd" d="M4.79414 1.04395C3.66196 1.04395 2.74414 1.96176 2.74414 3.09395V12.906C2.74414 14.0382 3.66196 14.956 4.79414 14.956H11.0059C12.2485 14.956 13.2559 13.9486 13.2559 12.706V6.10088C13.2559 5.80981 13.1455 5.52956 12.947 5.31667L9.30449 1.40973C9.08698 1.17643 8.78233 1.04395 8.46336 1.04395H4.79414ZM4.04414 3.09395C4.04414 2.67973 4.37993 2.34395 4.79414 2.34395H8.0142L8.01419 4.48735C8.01419 5.61953 8.93201 6.53735 10.0642 6.53735H11.9559V12.706C11.9559 13.2307 11.5306 13.656 11.0059 13.656H4.79414C4.37993 13.656 4.04414 13.3202 4.04414 12.906V3.09395ZM11.0957 5.23735L9.3142 3.32651L9.31419 4.48735C9.31419 4.90157 9.64998 5.23735 10.0642 5.23735H11.0957Z" fill="black"/>
</svg>

<svg xmlns="http://www.w3.org/2000/svg" width="16" height="16" fill="none" viewBox="0 0 16 16"><path fill="#000" fill-rule="evenodd" d="M4.7941 1.044c-1.1321 0-2.05.9178-2.05 2.05v9.812c0 1.1322.9179 2.05 2.05 2.05h6.2118c1.2426 0 2.25-1.0074 2.25-2.25V6.1009a1.15 1.15 0 0 0-.3089-.7842l-3.6425-3.907a1.15 1.15 0 0 0-.8411-.3657zm-.75 2.05a.75.75 0 0 1 .75-.75h3.2201v2.1434c0 1.1321.9178 2.05 2.05 2.05h1.8917v6.1686a.95.95 0 0 1-.95.95H4.7941a.75.75 0 0 1-.75-.75zm7.0516 2.1434L9.3142 3.3265v1.1609a.75.75 0 0 0 .75.75z"/></svg>
